X:1
T:Title
%%score { ( 1 3 ) | ( 2 4 ) }
L:1/8
Q:1/4=108
M:4/4
K:F
V:1 treble nm="Grand Piano"
V:3 treble 
V:2 bass 
V:4 bass 
V:1
 F>F F>F F2 G2 | A4 c2 z2 | d2 c2 A2 [CF]2 | [CEG]6 z2 | F>F F>F F2 G2 | A4 c2 z2 | %6
w: J.~H.~Rosecrans * * * * *||||||
 d2 c2 [FA]2 [CG]2 | [CF]6 z2 | [EG]2 [FA]2 [GB]2 [EG]2 | [FA]2 [GB]2 [Ac]2 [FA]2 | %10
w: ||||
 [EG]2 [FA]2 [GB]2 [EG]2 | A2 F2 [EG]4 | [EG]2 [FA]2 [GB]2 [EG]2 | [FA]2 [GB]2 [Ac]2 A2 | %14
w: ||||
 G3 c c=B[FA][FB] | c6 z2 | F>F F>F F2 G2 | A4 c2 z2 | d2 c2 A2 [CF]2 | [CEG]6 z2 | F>F F>F F2 G2 | %21
w: |||||||
 A4 c2 z2 | d2 c2 [FA]2 G2 |[M:8/4] F8 z8 |] %24
w: |||
V:2
 [F,A,C]>[F,A,C] [F,A,C]>[F,A,C] [F,A,C]2 [F,B,C]2 | [F,CF]4 [F,A,F]2 z2 | %2
 [F,B,F]2 [F,A,F]2 [F,CF]2 A,,2 | C,6 z2 | [F,A,C]>[F,A,C] [F,A,C]>[F,A,C] [F,A,C]2 [F,B,C]2 | %5
 [F,CF]4 [F,A,F]2 z2 | [F,B,F]2 [F,A,F]2 [C,C]2 [C,B,]2 | [F,A,]6 z2 | %8
 [C,C]2 [C,C]2 [C,C]2 [C,C]2 | [F,C]2 [F,C]2 [F,C]2 [F,C]2 | [C,C]2 [C,C]2 [C,C]2 [C,C]2 | %11
 [F,CF]2 [D,=B,]2 [C,C]4 | [C,C]2 [C,C]2 [C,C]2 [C,C]2 | [F,C]2 [F,C]2 [F,C]2[K:treble] [F,CF]2 | %14
 [G,CE]3 [G,E] [G,F][G,F][K:bass][G,,G,][G,,G,] | G,2 z2 z4 | %16
 [F,A,C]>[F,A,C] [F,A,C]>[F,A,C] [F,A,C]2 [F,B,C]2 | [F,CF]4 [F,A,F]2 z2 | %18
 [F,B,F]2 [F,A,F]2 [F,CF]2 A,,2 | C,6 z2 | [F,A,C]>[F,A,C] [F,A,C]>[F,A,C] [F,A,C]2 [F,B,C]2 | %21
 [F,CF]4 [F,A,F]2 z2 | [F,B,F]2 [F,A,F]2 [C,C]2 [C,B,C]2 |[M:8/4] [F,A,C]8 z8 |] %24
V:3
 x8 | x8 | x8 | x8 | x8 | x8 | x8 | x8 | x8 | x8 | x8 | x8 | x8 | x8 | x8 | E2 F2 G2 z2 | x8 | x8 | %18
 x8 | x8 | x8 | x8 | x8 |[M:8/4] x16 |] %24
V:4
 x8 | x8 | x8 | x8 | x8 | x8 | x8 | x8 | x8 | x8 | x8 | x8 | x8 | x6[K:treble] x2 | x6[K:bass] x2 | %15
 C,2- [C,-A,]2 [C,B,]2 z2 | x8 | x8 | x8 | x8 | x8 | x8 | x8 |[M:8/4] x16 |] %24

